X:1
T:Title
%%score 1 2
L:1/8
Q:1/4=100
M:6/8
K:Ab
V:1 treble nm="Grand Piano, Soprano"
V:2 bass nm="Choir Pad, Who Shall Have Your Soul"
V:1
 [CE]2 [CE] [EA]2 [EB] | [Ec]2 [EB] [EA]3 | [CE] [CE]2 [EA]2 [Ec] | [EB]6 | [CE]2 [DE] [EA]2 [EB] | %5
w: By~Otto~Theophilus~Hirschler * * *|||||
 [Ec]2 [DB] [CA]3 | [Ee]2 [Ec] [EA]2 [Ec] | [DB]6 | [CE]2 [DE] [EA]2 [EB] | [Ec]2 [Ad] [Ae]3 | %10
w: |||||
 [Af]2 [Ac] [Ae]2 [EA] | [Ec]2 [GB] [EA]3 | [CE]2 [CE] [EA]2 [Ec] | [EB]6 | [CE]2 [CE] [Ee]2 [EA] | %15
w: |||||
 [DB]6 | [CE]2 [DE] [EA]2 [EB] | [Ec]2 [Ad] [Ae]3 | [Af]2 [Ac] [Ae]2 [EA] | [Ec]2 [GB] [EA]3- | %20
w: |||||
 [EA]6 |] %21
w: |
V:2
 A,2 A, [F,C]2 [G,B,] | A,2 [E,D] [A,C]3 | A, A,2 [A,C]2 A, | [E,G,]6 | %4
 [A,,A,]2 [B,,G,] [C,A,]2 [E,G,] | A,2 [E,G,] [F,A,]3 | [A,C]2 A, [A,C]2 A, | [E,G,]6 | %8
 A,2 [G,B,] [F,C]2 [G,B,] | A,2 [F,A,] [E,C]3 | [D,D]2 [F,C] [E,C]2 [E,C] | [E,A,]2 [E,D] [A,C]3 | %12
 A,2 A, [A,C]2 A, | [E,G,]6 | A,2 A, [C,A,]2 [C,A,] | [E,G,]6 | A,2 [G,B,] [F,C]2 [G,B,] | %17
 A,2 [F,A,] [E,C]3 | [D,D]2 [F,C] [E,C]2 [E,C] | [E,A,]2 [E,D] [A,C]3- | [A,C]6 |] %21

